X:570
T:Peeler's Jacket, The
C:Joe Buchanan's Scottish Tome - Page 153.2
I:153 2
Z:Carl Allison
R:Reel
L:1/8
M:4/4
K:G
G2 (BG) DGBG | FGAB c2 (Bc) | (Bg)(gf) d2 (eg) | (fd)cA (B<G)AF |
G2 (BG) DGBG | FGAB c2 (Bc) | (Bg)(gf) d2 (eg) | (fd)cA (B<G)G z |]
gagf d2 (ef) | gfga bgaf | gagf d2 (eg) | (fd)cA BGG z |
gagf d2 (ef) | gfga agaf | gbag fdeg | (f<d)cA (B<G)AF |]

